src/containers/Contact/email.svg

<svg viewBox="0 0 512 362" xmlns="http://www.w3.org/2000/svg"><g fill="none"><path d="m48 32.984h416v256h-416z" fill="#fff"/><path d="m48 32.984h416v64h-416z" fill="#ff4f19"/><path d="m459.133.984h-406.281c-20.321 0-36.852 16.493-36.852 36.766v291.234c0 4.422 3.578 8 8 8h464c4.422 0 8-3.578 8-8v-291.234c0-20.273-16.539-36.766-36.867-36.766zm-411.133 280v-240c0-4.418 3.582-8 8-8h400c4.418 0 8 3.582 8 8v240c0 4.418-3.582 8-8 8h-400c-4.418 0-8-3.582-8-8z" fill="#5c546a"/><path d="m504 320.984h-496c-4.422 0-8 3.578-8 8 0 17.664 14.367 32.031 32.031 32.031h447.937c17.664 0 32.031-14.367 32.031-32.031 0-4.422-3.577-8-7.999-8z" fill="#b9bbc1"/><path d="m144 72.984h-56c-4.422 0-8-3.578-8-8s3.578-8 8-8h56c4.422 0 8 3.578 8 8s-3.578 8-8 8z" fill="#ffd200"/><path d="m288 72.984h-8c-4.422 0-8-3.578-8-8s3.578-8 8-8h8c4.422 0 8 3.578 8 8s-3.578 8-8 8z" fill="#fff"/><path d="m328 72.984h-8c-4.422 0-8-3.578-8-8s3.578-8 8-8h8c4.422 0 8 3.578 8 8s-3.578 8-8 8z" fill="#fff"/><path d="m368 72.984h-8c-4.422 0-8-3.578-8-8s3.578-8 8-8h8c4.422 0 8 3.578 8 8s-3.578 8-8 8z" fill="#fff"/><path d="m408 72.984h-8c-4.422 0-8-3.578-8-8s3.578-8 8-8h8c4.422 0 8 3.578 8 8s-3.578 8-8 8z" fill="#fff"/><path d="m224 264.984h-136c-4.418 0-8-3.582-8-8v-128c0-4.418 3.582-8 8-8h136c4.418 0 8 3.582 8 8v128c0 4.418-3.582 8-8 8z" fill="#53dcff"/><path d="m416 136.984h-152c-4.422 0-8-3.578-8-8s3.578-8 8-8h152c4.422 0 8 3.578 8 8s-3.578 8-8 8z" fill="#ff4f19"/><g fill="#b9bbc1"><path d="m328 200.984h-64c-4.422 0-8-3.578-8-8s3.578-8 8-8h64c4.422 0 8 3.578 8 8s-3.578 8-8 8z"/><path d="m328 232.984h-64c-4.422 0-8-3.578-8-8s3.578-8 8-8h64c4.422 0 8 3.578 8 8s-3.578 8-8 8z"/><path d="m328 264.984h-64c-4.422 0-8-3.578-8-8s3.578-8 8-8h64c4.422 0 8 3.578 8 8s-3.578 8-8 8z"/><path d="m424 200.984h-64c-4.422 0-8-3.578-8-8s3.578-8 8-8h64c4.422 0 8 3.578 8 8s-3.578 8-8 8z"/><path d="m424 232.984h-64c-4.422 0-8-3.578-8-8s3.578-8 8-8h64c4.422 0 8 3.578 8 8s-3.578 8-8 8z"/><path d="m424 264.984h-64c-4.422 0-8-3.578-8-8s3.578-8 8-8h64c4.422 0 8 3.578 8 8s-3.578 8-8 8z"/></g><path d="m368 168.984h-104c-4.422 0-8-3.578-8-8s3.578-8 8-8h104c4.422 0 8 3.578 8 8s-3.578 8-8 8z" fill="#e9001e"/><path d="m224 336.984h64c8.836 0 16-7.164 16-16h-96c0 8.837 7.163 16 16 16z" fill="#8b8996"/></g></svg>

<svg viewBox="0 0 512 362" xmlns="http://www.w3.org/2000/svg" xmlns:xlink="http://www.w3.org/1999/xlink"> <g id="Page-1" stroke="none" stroke-width="1" fill="none" fill-rule="evenodd"> <g id="laptop" fill-rule="nonzero"> <rect id="Rectangle" fill="#FFFFFF" x="48" y="32.984" width="416" height="256"></rect> <rect id="Rectangle" fill="#FF4F19" x="48" y="32.984" width="416" height="64"></rect> <path d="M459.133,0.984 L52.852,0.984 C32.531,0.984 16,17.477 16,37.75 L16,328.984 C16,333.406 19.578,336.984 24,336.984 L488,336.984 C492.422,336.984 496,333.406 496,328.984 L496,37.75 C496,17.477 479.461,0.984 459.133,0.984 Z M48,280.984 L48,40.984 C48,36.566 51.582,32.984 56,32.984 L456,32.984 C460.418,32.984 464,36.566 464,40.984 L464,280.984 C464,285.402 460.418,288.984 456,288.984 L56,288.984 C51.582,288.984 48,285.402 48,280.984 Z" id="Shape" fill="#5C546A"></path> <path d="M504,320.984 L8,320.984 C3.578,320.984 0,324.562 0,328.984 L0,328.984 C0,346.648 14.367,361.015 32.031,361.015 L479.968,361.015 C497.632,361.015 511.999,346.648 511.999,328.984 L511.999,328.984 C511.999,324.562 508.422,320.984 504,320.984 Z" id="Path" fill="#B9BBC1"></path> <path d="M144,72.984 L88,72.984 C83.578,72.984 80,69.406 80,64.984 C80,60.562 83.578,56.984 88,56.984 L144,56.984 C148.422,56.984 152,60.562 152,64.984 C152,69.406 148.422,72.984 144,72.984 Z" id="Path" fill="#FFD200"></path> <path d="M288,72.984 L280,72.984 C275.578,72.984 272,69.406 272,64.984 C272,60.562 275.578,56.984 280,56.984 L288,56.984 C292.422,56.984 296,60.562 296,64.984 C296,69.406 292.422,72.984 288,72.984 Z" id="Path" fill="#FFFFFF"></path> <path d="M328,72.984 L320,72.984 C315.578,72.984 312,69.406 312,64.984 C312,60.562 315.578,56.984 320,56.984 L328,56.984 C332.422,56.984 336,60.562 336,64.984 C336,69.406 332.422,72.984 328,72.984 Z" id="Path" fill="#FFFFFF"></path> <path d="M368,72.984 L360,72.984 C355.578,72.984 352,69.406 352,64.984 C352,60.562 355.578,56.984 360,56.984 L368,56.984 C372.422,56.984 376,60.562 376,64.984 C376,69.406 372.422,72.984 368,72.984 Z" id="Path" fill="#FFFFFF"></path> <path d="M408,72.984 L400,72.984 C395.578,72.984 392,69.406 392,64.984 C392,60.562 395.578,56.984 400,56.984 L408,56.984 C412.422,56.984 416,60.562 416,64.984 C416,69.406 412.422,72.984 408,72.984 Z" id="Path" fill="#FFFFFF"></path> <path d="M224,264.984 L88,264.984 C83.582,264.984 80,261.402 80,256.984 L80,128.984 C80,124.566 83.582,120.984 88,120.984 L224,120.984 C228.418,120.984 232,124.566 232,128.984 L232,256.984 C232,261.402 228.418,264.984 224,264.984 Z" id="Path" fill="#53DCFF"></path> <path d="M416,136.984 L264,136.984 C259.578,136.984 256,133.406 256,128.984 C256,124.562 259.578,120.984 264,120.984 L416,120.984 C420.422,120.984 424,124.562 424,128.984 C424,133.406 420.422,136.984 416,136.984 Z" id="Path" fill="#FF4F19"></path> <path d="M328,200.984 L264,200.984 C259.578,200.984 256,197.406 256,192.984 C256,188.562 259.578,184.984 264,184.984 L328,184.984 C332.422,184.984 336,188.562 336,192.984 C336,197.406 332.422,200.984 328,200.984 Z" id="Path" fill="#B9BBC1"></path> <path d="M328,232.984 L264,232.984 C259.578,232.984 256,229.406 256,224.984 C256,220.562 259.578,216.984 264,216.984 L328,216.984 C332.422,216.984 336,220.562 336,224.984 C336,229.406 332.422,232.984 328,232.984 Z" id="Path" fill="#B9BBC1"></path> <path d="M328,264.984 L264,264.984 C259.578,264.984 256,261.406 256,256.984 C256,252.562 259.578,248.984 264,248.984 L328,248.984 C332.422,248.984 336,252.562 336,256.984 C336,261.406 332.422,264.984 328,264.984 Z" id="Path" fill="#B9BBC1"></path> <path d="M424,200.984 L360,200.984 C355.578,200.984 352,197.406 352,192.984 C352,188.562 355.578,184.984 360,184.984 L424,184.984 C428.422,184.984 432,188.562 432,192.984 C432,197.406 428.422,200.984 424,200.984 Z" id="Path" fill="#B9BBC1"></path> <path d="M424,232.984 L360,232.984 C355.578,232.984 352,229.406 352,224.984 C352,220.562 355.578,216.984 360,216.984 L424,216.984 C428.422,216.984 432,220.562 432,224.984 C432,229.406 428.422,232.984 424,232.984 Z" id="Path" fill="#B9BBC1"></path> <path d="M424,264.984 L360,264.984 C355.578,264.984 352,261.406 352,256.984 C352,252.562 355.578,248.984 360,248.984 L424,248.984 C428.422,248.984 432,252.562 432,256.984 C432,261.406 428.422,264.984 424,264.984 Z" id="Path" fill="#B9BBC1"></path> <path d="M368,168.984 L264,168.984 C259.578,168.984 256,165.406 256,160.984 C256,156.562 259.578,152.984 264,152.984 L368,152.984 C372.422,152.984 376,156.562 376,160.984 C376,165.406 372.422,168.984 368,168.984 Z" id="Path" fill="#E9001E"></path> <path d="M224,336.984 L288,336.984 C296.836,336.984 304,329.82 304,320.984 L208,320.984 C208,329.821 215.163,336.984 224,336.984 Z" id="Path" fill="#8B8996"></path> </g> </g> </svg>
